X: 15640
T: Goin' Back To Old St. John's
R: reel
M: 4/4
K: Dmajor
|:Ddcd B/c/dAF|Eeed fdec|Ddcd B/c/dAF|1 Eedc d2d2:|2 Eedc d2dc/d/||
eeed/e/ fffd|gefd ecAc|eeed/e/ fffd|gedc d2dc/d/|
eeed/e/ fffd|gefd ecAF|Ddcd B/c/dAF|Eedc d2d2||

